svg/brand/apple.svg

<svg width="16" height="16" viewBox="0 0 16 16" fill="none" xmlns="http://www.w3.org/2000/svg">
<path d="M12.847 5.9547C12.4059 6.22983 12.0375 6.60698 11.7729 7.05433C11.5824 7.42531 11.4846 7.83692 11.4879 8.25393C11.4839 8.57343 11.5413 8.89072 11.6569 9.18862C11.7743 9.47791 11.9351 9.7476 12.1339 9.98835C12.4243 10.3059 12.7747 10.5628 13.165 10.7441C12.954 11.3383 12.6622 11.9008 12.298 12.4155C12.0075 12.871 11.6482 13.2787 11.2329 13.6241C10.976 13.8389 10.6562 13.9641 10.3218 13.981C10.0001 13.9608 9.68419 13.8857 9.38776 13.7591L9.20475 13.7001L8.90473 13.5742C8.6775 13.5069 8.44166 13.4732 8.20468 13.4742C7.90162 13.4817 7.60203 13.5405 7.31863 13.6481L7.08761 13.7341L6.79759 13.8501C6.57704 13.9379 6.34197 13.9837 6.10455 13.985C5.78397 13.938 5.47743 13.822 5.20616 13.6449C4.93488 13.4678 4.70535 13.2339 4.53344 12.9594C3.9894 12.3008 3.56097 11.5548 3.26636 10.7531C2.98452 9.98968 2.83929 9.18263 2.83733 8.36889C2.80459 7.42948 3.11852 6.51082 3.71939 5.78775C4.01452 5.44717 4.38295 5.17779 4.79707 4.99981C5.21118 4.82183 5.66023 4.73988 6.11055 4.7601C6.46418 4.75688 6.81484 4.82488 7.14161 4.96003L7.36363 5.047L7.59464 5.14697C7.74979 5.21789 7.91648 5.26022 8.08668 5.27193C8.27145 5.27111 8.45439 5.23515 8.62571 5.16596L8.93473 5.051L9.15575 4.96403C9.54037 4.82534 9.94699 4.75759 10.3558 4.7641C10.8357 4.75094 11.3119 4.85204 11.7451 5.05905C12.1782 5.26606 12.5559 5.57305 12.847 5.9547V5.9547ZM10.3998 2.01501C10.4128 2.15597 10.4198 2.26593 10.4198 2.34291C10.4099 2.77643 10.2905 3.20042 10.0728 3.57549C9.86128 3.97747 9.5491 4.31777 9.16675 4.56316C8.79797 4.79621 8.36994 4.91836 7.93367 4.91505C7.91574 4.80318 7.90438 4.69035 7.89966 4.57716C7.90902 4.19994 8.01212 3.83098 8.19968 3.50352C8.40206 3.12834 8.68316 2.80132 9.02374 2.54484C9.36827 2.28339 9.77241 2.11163 10.1998 2.045L10.3998 2.01501Z" fill="black"/>
</svg>

<svg id="Layer_1" data-name="Layer 1" xmlns="http://www.w3.org/2000/svg" viewBox="0 0 16 16"><title>apple</title><path d="M12.847,5.952a3.241,3.241,0,0,0-1.074,1.1,2.582,2.582,0,0,0-.285,1.2,2.5,2.5,0,0,0,.169.935,3.068,3.068,0,0,0,.477.8,3.255,3.255,0,0,0,1.031.756,6.881,6.881,0,0,1-.867,1.672,5.23,5.23,0,0,1-1.065,1.209,1.541,1.541,0,0,1-.911.357,2.829,2.829,0,0,1-.934-.222L9.205,13.7l-.3-.126a2.431,2.431,0,0,0-.7-.1,2.683,2.683,0,0,0-.886.174l-.231.086-.29.116a1.9,1.9,0,0,1-.693.135,2.236,2.236,0,0,1-1.571-1.026,7.56,7.56,0,0,1-1.267-2.207,6.937,6.937,0,0,1-.429-2.385,3.832,3.832,0,0,1,.882-2.582A2.986,2.986,0,0,1,6.111,4.757a2.634,2.634,0,0,1,1.031.2l.222.087.231.1a1.417,1.417,0,0,0,.492.125,1.456,1.456,0,0,0,.539-.106l.309-.115.221-.087a3.378,3.378,0,0,1,1.2-.2A3.028,3.028,0,0,1,12.847,5.952ZM10.4,2.011c.013.141.02.251.02.328a2.574,2.574,0,0,1-.347,1.233,2.628,2.628,0,0,1-.906.988,2.275,2.275,0,0,1-1.233.352A2.9,2.9,0,0,1,7.9,4.574a2.275,2.275,0,0,1,.3-1.074,2.959,2.959,0,0,1,.824-.959,2.61,2.61,0,0,1,1.176-.5Z"/></svg>
